X: 1
T: Die frÃ¶hlichen BrÃ¼der (Mazurka) CF chords
T:Hanny Christen. Bd.VIII Zug, Luzern, Uri I. S.271 (mz09919) orig. C,F-Dur
T: T\"anze aus Weggis (Luzern)
M:3/4
L:1/8
K:C %%MIDI gchordon
"C"G>c c>e g>c' | a2a2 g>e | a2a2 g>e | "G7"f6 | G>B B>d f>g | b2b2 a>f | b2b2 a>f | "C"e6 | G>c c>e g>c' | 
a2a2 g>e | a2a2 g>e | "G"d6 | "D7"d2e2^f2 | "G"g2a2b2 | "D7"^fa af d'f | "G"g2g2z2 |: "C"g>a a>b b>c' | "G7"b>g f4 | 
f>g g>a a>b | "C"a>a e4 | eG dG cG |1 "G7"B>a g2g2 | fG eG dG | "C"c>a g2g2 :|2 "G7"B>a a4 | g>a g>f e>d | "C"c2c'2z2 || [K:F] 
"F"a>a g>g a>a | f>f d>d c>c | f>f e2d2 | "C7"e6 | b>b g>g b>b | e>e d>d> c>c | e>e g2c'2 | "F"a4f2 | 
a>a g>g a>a | f>f d>d c>c | "Bb"d>d f2e2 | d6 |  db bd bd | "F"ca ac ac | "C7"c2 eg c'e | "F"f2f2z2 |] 

